src/pos-icons/music-rest-sixteenth.svg

<svg height="24" viewBox="0 0 24 24" width="24" xmlns="http://www.w3.org/2000/svg"><path d="m15 3a5.56 5.56 0 0 1 -3.05 1.86 1.5 1.5 0 1 0 -1.45 1.14h.24a6.32 6.32 0 0 0 3.51-1.07l-1.35 4.17a5.56 5.56 0 0 1 -2.95 1.76 1.5 1.5 0 1 0 -1.45 1.14h.24a6.32 6.32 0 0 0 3.51-1.07l-3.25 10.07h2l6-18z"/></svg>

<?xml version="1.0" encoding="UTF-8"?><!DOCTYPE svg PUBLIC "-//W3C//DTD SVG 1.1//EN" "http://www.w3.org/Graphics/SVG/1.1/DTD/svg11.dtd"><svg xmlns="http://www.w3.org/2000/svg" xmlns:xlink="http://www.w3.org/1999/xlink" version="1.1" id="mdi-music-rest-sixteenth" width="24" height="24" viewBox="0 0 24 24"><path d="M15 3A5.56 5.56 0 0 1 11.95 4.86A1.5 1.5 0 1 0 10.5 6H10.74A6.32 6.32 0 0 0 14.25 4.93L12.9 9.1A5.56 5.56 0 0 1 9.95 10.86A1.5 1.5 0 1 0 8.5 12H8.74A6.32 6.32 0 0 0 12.25 10.93L9 21H11L17 3Z" /></svg>
